!!!!SEGMENT: pl-wn--sd-xvi-qu-273--001_gomolka-mikolaj--szczesliwy-ktory-nie-byl-miedzy-zlymi-w-radzie.krn
!!!cenid: 15xx:206
!!!COM: Gomółka, Mikołaj
!!!COM-rismid: pe30013343
!!!CDT: ~1535->1591/04/30
!!!CNT: Polish
!!!GTL: Melodiae na psalterz polski
!!!OTL: I. Szczęśliwy, który nie był miedzy złymi w radzie
!!!PDT: 1580
!!!AGN: Sacred
!!!SMS-siglum: PL-Wn
!!!SMS-shelfmark: SD XVI.Qu.273
!!!SMS-shelfwork: 001 G
!!!NIFC-rismid:
!!!ONB-nifc: Melodiae na psalterz polski
**kern	**text	**kern	**text	**kern	**text	**kern	**text
*part4	*part4	*part3	*part3	*part2	*part2	*part1	*part1
*staff4	*staff4	*staff3	*staff3	*staff2	*staff2	*staff1	*staff1
*I"BASSUS.	*	*I"TENOR.	*	*I"ALTVS.	*	*I"CANTVS.	*
*clefF3	*	*clefC3	*	*clefC3	*	*clefC1	*
*k[]	*	*k[]	*	*k[]	*	*k[]	*
*d:	*	*d:	*	*d:	*	*d:	*
*M2/1	*	*M2/1	*	*M2/1	*	*M2/1	*
*met(C|)	*	*met(C|)	*	*met(C|)	*	*met(C|)	*
*iiif:1r	*	*iiif:1r	*	*iiif:1r	*	*iiif:1r	*
*xywh:662,5387,5192,1144	*	*xywh:645,4125,5158,1211	*	*xywh:634,2835,5180,1267	*	*xywh:654,1558,5204,1281	*
=1-	=1-	=1-	=1-	=1-	=1-	=1-	=1-
1D/	Szczęś-	1d\	Szczęś-	1f\	Szczęś-	1a\	Szczęś-
2F/	-li-	2c\	-li-	2f\	-li-	2a\	-li-
2D/	-(wy),	2d\	-wy,	2f\	-wy,	2a\	-wy,
=2-	=2-	=2-	=2-	=2-	=2-	=2-	=2-
1G\	któ-	1d\	któ-	1g\	któ-	1b\	któ-
2C/	-ry	2e\	-ry	2g\	-ry	2cc\	-ry
1c\	nie	1e\	nie	1g\	nie	1cc\	nie
=3-	=3-	=3-	=3-	=3-	=3-	=3-	=3-
.	.	.	.	.	.	.	.
2G\	był	2d\	był	2g\	był	2b\	był
2A\	mie-	2c\	mie-	4f\	mie-	2a\	mie-
.	.	.	.	4e\	.	.	.
2E/	-dzy	2B/	-dzy	2e\	-dzy	2g#X/	-dzy
=4-	=4-	=4-	=4-	=4-	=4-	=4-	=4-
2AA/	złé-	2A/	złé-	4c\	złé-	2a\	złé-
.	.	.	.	4d\	.	.	.
4A\	-mi	1c\	-mi	1e\	-mi	1a\	-mi
4G\	.	.	.	.	.	.	.
4F/	.	.	.	.	.	.	.
4E/	.	.	.	.	.	.	.
2F/	w rá-	4B/	w rá-	2d\	w rá-	4gny/	w rá-
.	.	4A/	.	.	.	4f#X/	.
=5-	=5-	=5-	=5-	=5-	=5-	=5-	=5-
2E/	-dzie,	2B/	-dzie,	2e\	-dzie,	2g\	-dzie,
2E/	A-	2e\	A-	2g\	A-	2b\	A-
2G\	-ni	2d\	-ni	2g\	-ni	2b\	-ni
2D/	stóp	2f\	stóp	2a\	stóp	2dd\	stóp
=6-	=6-	=6-	=6-	=6-	=6-	=6-	=6-
2A\	swo-	1e\	swo-	4A/	swo-	1cc\	swo-
.	.	.	.	4B/	.	.	.
2AA/	.	.	.	4c/	.	.	.
.	.	.	.	4d\	.	.	.
2E/	-ich	2e\	-ich	4e\	.	2b\	-ich
.	.	.	.	4f\	.	.	.
4C/	to-	1e\	to-	2g\	-ich	1cc\	to-
4D/	.	.	.	.	.	.	.
=7-	=7-	=7-	=7-	=7-	=7-	=7-	=7-
4E/	.	.	.	4G/	to-	.	.
4F\	.	.	.	4A/	.	.	.
2G\	-rem	2d\	-rem	4B/	-rem	2b\	-rem
.	.	.	.	4c/	.	.	.
!!LO:PB:g=original
*iiif:1v	*	*iiif:1v	*	*iiif:1v	*	*iiif:1v	*
*xywh:1006,5349,5147,1290	*	*xywh:965,4177,5139,1184	*	*xywh:1001,2810,5048,1332	*	*xywh:965,1544,5097,1360	*
2D/	grzész-	2f\	grzész-	2d\	grzész-	2a\	grzész-
2C/	-nych	2e\	-nych	2g\	-n(ych)	2cc\	-n(ych)
=8-	=8-	=8-	=8-	=8-	=8-	=8-	=8-
2D/	lu-	2.d\	lu-	2f\	lu-	2b\	lu-
2D/	-dzi	.	.	2f\	-dzi	1a\	-dzi
.	.	4c/	.	.	.	.	.
1E/	kłá-	4B/	-dzi	2.e\	kłá-	.	.
.	.	4A/	.	.	.	.	.
.	.	2B/	kłá-	.	.	2g/	kłá-
.	.	.	.	4d\	.	.	.
=9-	=9-	=9-	=9-	=9-	=9-	=9-	=9-
1AA/	-dzie:	1A/	-dzie:	1c#X\	-dzie:	1a\	-dzie:
1E/	A-	1B/	A-	1e\	A-	1g\	A-
=10-	=10-	=10-	=10-	=10-	=10-	=10-	=10-
2E/	-ni	2B/	-ni	2e\	-ni	2g\	-ni
1E/	śiadł	1B/	śiadł	1e\	śiadł	1g\	śiadł
2C/	ná	2c/	ná	2e\	ná	2e/	ná
=11-	=11-	=11-	=11-	=11-	=11-	=11-	=11-
2F/	sto-	2A/	sto-	2cny\	sto-	2a\	sto-
2F/	-li-	2A/	-li-	2d\	-li-	2a\	-li-
2E/	-cy,	2B/	-cy,	2e\	-cy,	2g\	-cy,
1A\	gdźie	1c\	gdźie	2.A/	gdźie	1e/	gdźie
=12-	=12-	=12-	=12-	=12-	=12-	=12-	=12-
.	.	.	.	.	.	.	.
.	.	.	.	4B/	.	.	.
1F\	tá-	1A/	tá-	2.c/	tá-	1fny/	tá-
.	.	.	.	4d\	.	.	.
2E/	-cy	2B/	-cy	2e\	-cy	2g/	-cy
=13-	=13-	=13-	=13-	=13-	=13-	=13-	=13-
2A\	śia-	2c/	śia-	2e\	śia-	2g/	śia-
2A\	-dá-	2c/	-d(á-	4d\	-dá-	2f/	-dá-
.	.	.	.	4c\	.	.	.
2G\	-ją,	2B/	-ją),	2d\	-ją,	2g/	-ją,
2E/	Co	2G/	Co	2e\	Co	2b\	Co
=14-	=14-	=14-	=14-	=14-	=14-	=14-	=14-
2A\	sye	2A/	sye	2e\	sye	2cc\	sye
2G\	z ná-	2B/	z ná-	2e\	z ná-	2b\	z ná-
!!LO:PB:g=original
*iiif:2r	*	*iiif:2r	*	*iiif:2r	*	*iiif:2r	*
*xywh:682,5247,5175,1363	*	*xywh:710,4003,5101,1331	*	*xywh:724,2842,5098,1212	*	*xywh:731,1479,5090,1373	*
2A\	-u-	2c\	-u-	2e\	-u-	2a\	-u-
2F\	-ki	2A/	-ki	2d\	-ki	2a\	-ki
=15-	=15-	=15-	=15-	=15-	=15-	=15-	=15-
2.E/	zdro-	1B/	zdro-	2e\	zdro-	2.g/	zdro-
.	.	.	.	2e\	.	.	.
4D/	.	.	.	.	.	4f/	.
4C/	-wéy	2c/	-wéy	2e\	-wéy	2e/	-wéy
4BB/	.	.	.	.	.	.	.
2AA/	-rá-	2c/	-rá-	2e\	rá-	2cc\	rá-
=16-	=16-	=16-	=16-	=16-	=16-	=16-	=16-
2D/	-dźi	4d\	-dźi	2f\	-dźi	2b\	-dźi
.	.	4c\	.	.	.	.	.
2F/	náś-	4B/	náś-	2d\	náś-	2a\	náś-
.	.	4A/	-mié-	.	.	.	.
2E/	mié-	2B/	.	2.e\	-mié-	2a\	-mié-
2E/	-wá-	2B/	-wá-	.	.	2g#X/	-wá-
.	.	.	.	4d\	-wá-	.	.
=17-	=17-	=17-	=17-	=17-	=17-	=17-	=17-
0AAll/;	ją;	0Al/;	-ją;	0c#Xl\	-ją;	0all\;	-ją;
==	==	==	==	==	==	==	==
*-	*-	*-	*-	*-	*-	*-	*-
!!!system-decoration: s1,s2,s3,s4
!!!RDF**kern: l = terminal long
!!!ENC: Leszek Kubiak
!!!END: 2020-01-31
!!!URL-scan: https://polona.pl/item/melodiae-na-psalterz-polski,Nzk3MTM4ODQ/16 Scan on Polona
!!!IIIF: https://polona.pl/iiif/item/Nzk3MTM4ODQ/manifest.json
!!!IIIF-1r: https://zas.bn.org.pl/iiif/79713884/79933068.tif
!!!IIIF-1v: https://zas.bn.org.pl/iiif/79713884/79933093.tif
!!!IIIF-2r: https://zas.bn.org.pl/iiif/79713884/79933127.tif
